X: 38
T: Holy Even, a Scotch-measure
%R: _
N: Handwritten "Halleween"
B: "A Collection of Original Scotch-Tunes", Henry Playford, 1700, ed. p.16 #38
F: http://imslp.org/wiki/A_Collection_of_Original_Scotch_Tunes_(Various)
Z: 2015 John Chambers <jc:trillian.mit.edu>
M: none
L: 1/8
K: F
% - - - - - - - - - - - - - - - - - - - - - - - - - - - - -
fc |\
A2 (GF) F2 fg | g3 f d2 f2 | A3 f cA (GF) | E2 G2 G2 cB |\
A2 (GF) F2 fg | g3 f d2 f2 | (AB) (cA) (FD) (EC) | D2 F2 F2 ||
fe |\
dcde fgfe | dcde f2 F2 | A3 f (cA) (GF) | E2 G2 G2 cB |\
AF cA dc fd | gagf edec | bagg ef de | c2 f2 f2 |]
% - - - - - - - - - - - - - - - - - - - - - - - - - - - - -

%%sep 1 1 500
%%sep 1 1 500

